X:1
T:Crown Him with Many Crowns
T:Text: st. 1, 3, Matthew Bridges, 1851; st. 2, Godfrey Thring, 1874; alt. Tune: George J. Elvery, 1868
T:SMD DIADEMATA www.hymnary.org/text/crown_him_with_many_crowns
T:Crown Him with Many Crowns
T:This hymn is in the public domain. You may freely use this score for personal and congregational worship. If you reproduce the score, please credit Hymnary.org as the source. 
T:This hymn is in the public domain. You may freely use this score for personal and congregational worship. If you reproduce the score, please credit Hymnary.org as the source. 
Z:This hymn is in the public domain. You may freely use this score for personal and congregational worship. If you reproduce the score, please credit Hymnary.org as the source.
%%score ( 1 2 ) ( 3 4 )
L:1/8
M:4/4
K:D
V:1 treble nm="SOPRANO ALTO" snm="S. A."
V:2 treble 
V:3 bass nm="TENOR BASS" snm="T. B."
V:4 bass 
V:1
"^1""^2""^3" D2 DD F2 F2 | B6 B2 | A2 D2 G2 F2 | E6 | E2 | F2 A2 B2 A2 | ^G2 FE A2 d2 | %7
w: Crown him with man- y|crowns, the|Lamb up- on his|throne,|while|heaven's e- ter- nal|an- them _ drowns all|
w: Crown him the Lord of|life, tri-|um- phant o'er the|grave,|who|rose vic- to- rious|from the * strife for|
w: Crown him the Lord of|peace; his|king- dom is at|hand.|From|pole to pole let|war- fare * cease and|
 c2 d2 B2 B2 | A6 | A2 | A2 F2 E2 D2 | B6 B2 | B2 ^G2 F2 E2 | c6 c2 |1 d3 c B2 A2 | G2 E2 F2 A2 | %16
w: mu- sic but its|own!|A-|wake, my soul, and|sing of|him who died to|be your|Sav- ior and your|match- less King through|
w: those he came to|save.|His|glo- ries now we|sing who|died and reigns on|high; he|died, e- ter- nal|life to bring, and|
w: Christ rule ev- ery|land!|All|hail, Re- deem- er,|hail, for|you have died for|me. Your|praise shall nev- er,|nev- er fail through-|
 G2 F2 E2 E2 | D8 |] %18
w: all e- ter- ni-|ty.|
w: lives that death may|die.|
w: out e- ter- ni-|ty.|
V:2
 A,2 A,A, D2 D2 | D6 D2 | D2 D2 C2 D2 | C6 | C2 | D2 E2 D2 D2 | B,2 B,2 E2 D2 | E2 F2 B,2 E2 | C6 | %9
 C2 | D2 D2 C2 D2 | D6 ^D2 | E2 E2 =D2 E2 | E6 E2 |1 D2 D2 D2 D2 | D2 C2 D2 D2 | D2 D2 D2 C2 | %17
 D8 |] %18
V:3
 F,2 F,F, F,2 F,2 | G,6 G,2 | A,2 B,2 G,2 A,2 | A,6 | A,2 | A,2 A,2 F,2 F,2 | ^G,2 G,2 A,2 G,2 | %7
 A,2 A,2 A,2 ^G,2 | A,6 | A,2 | A,2 A,2 G,2 A,2 | B,6 A,2 | ^G,2 B,2 A,2 B,2 | A,6 A,2 |1 %14
 A,2 A,2 G,2 A,2 | B,2 A,2 A,2 A,2 | B,2 A,2 A,3 G, | F,8 |] %18
V:4
 D,2 D,D, B,,2 B,,2 | G,,6 G,2 | F,2 G,2 E,2 D,2 | A,,6 | A,,2 | D,2 C,2 B,,2 D,2 | %6
 E,2 D,2 C,2 B,,2 | A,,2 D,2 E,2 E,2 | A,,6 | G,2 | F,2 D,2 E,2 F,2 | G,6 F,2 | E,2 E,2 F,2 ^G,2 | %13
 A,6 G,2 |1 F,2 F,2 G,2 F,2 | E,2 A,2 D,2 F,,2 | G,,2 D,2 A,,2 A,,2 | D,8 |] %18

